X:0789
T:Bodachan a Garidh.
M:C|
L:1/8
Q:1/2=104
I: :: (1) :| (2) ||
Z:Jack Campin * www.campin.me.uk * 2009
K:D
g|f2 (df)   ae`eg |f2(df) ecAg|f2 (df)   ae`eg |   fdef d/d/d d:|
A|FA  A/A/A B2(Ac)|dB`AF  GEEG|FA  A/A/A B2(Ag)|[1 fdef d/d/d d:|\
                                                [2 faef d/d/d d|]
<end>
<start>
